assets/images/ico_wa2.svg

<svg width="77" height="46" viewBox="0 0 77 46" fill="none" xmlns="http://www.w3.org/2000/svg">
<path fill-rule="evenodd" clip-rule="evenodd" d="M63.039 2.78694e-06L14.1751 0.0594042C12.0598 0.0618744 10.3174 1.8306 10.3174 3.9808V34.6929C10.3174 34.8649 10.3508 35.0351 10.4158 35.194C10.4807 35.3529 10.5759 35.4974 10.6958 35.6189C10.8158 35.7403 10.9581 35.8363 11.1147 35.9017C11.2713 35.9671 11.439 36.0006 11.6083 36L65.6108 35.9406C65.9518 35.9406 66.2789 35.8028 66.52 35.5576C66.7612 35.3125 66.8967 34.9801 66.8967 34.6335V3.9214C66.8967 1.7712 65.1544 -0.00256615 63.039 2.78694e-06Z" fill="black"/>
<path fill-rule="evenodd" clip-rule="evenodd" d="M56.3291 45.7575H71.1418C74.2595 45.7575 76.787 43.1667 76.787 39.9707C69.9713 39.9677 63.1477 39.969 56.3291 39.969H41.4977H0.5625C0.562472 43.1657 3.09041 45.7571 6.20874 45.7571H41.4977L56.3291 45.7575Z" fill="black"/>
<rect x="17.1484" y="7" width="43.8978" height="22" fill="#94EADA"/>
</svg>

<svg width="77" height="46" fill="none" xmlns="http://www.w3.org/2000/svg"><path fill-rule="evenodd" clip-rule="evenodd" d="M63.039 0L14.175.06c-2.115.002-3.858 1.77-3.858 3.92v30.713a1.323 1.323 0 00.379.926 1.285 1.285 0 00.912.381l54.003-.06c.34 0 .668-.137.909-.382s.377-.578.377-.925V3.921c0-2.15-1.743-3.924-3.858-3.921zM56.33 45.758h14.812c3.118 0 5.645-2.591 5.645-5.787-6.816-.003-13.64-.002-20.458-.002H.563c0 3.197 2.527 5.788 5.646 5.788h50.12z" fill="#000"/><path fill="#94EADA" d="M17.148 7h43.898v22H17.148z"/></svg>
